website/public/Images/svg/box.svg

<svg width="28" height="32" viewBox="0 0 28 32" fill="none" xmlns="http://www.w3.org/2000/svg">
<path d="M16.5665 16.2527L15.1382 17.0825V32.0004L28.0001 24.5448V9.62695L16.5665 16.2527Z" fill="url(#paint0_linear)"/>
<path d="M18.8939 2.87468L13.9475 0L0.728516 7.6614L5.68151 10.5361L18.8939 2.87468Z" fill="url(#paint1_linear)"/>
<path d="M27.1597 7.66209L21.4595 4.40234L8.24707 12.0637L9.00093 12.4554L13.9473 15.3235L18.8672 12.4754L27.1597 7.66209Z" fill="url(#paint2_linear)"/>
<path d="M7.24764 17.5477L4.88025 16.3261V12.5286L0 9.70703V24.5186L12.7693 31.9211V17.1095L7.24764 13.9162V17.5477Z" fill="url(#paint3_linear)"/>
<defs>
<linearGradient id="paint0_linear" x1="18.3137" y1="9.62695" x2="31.0909" y2="25.9367" gradientUnits="userSpaceOnUse">
<stop stop-color="#D7D1FD"/>
<stop offset="1" stop-color="#6C639F"/>
</linearGradient>
<linearGradient id="paint1_linear" x1="5.21346" y1="-1.48062e-07" x2="8.24425" y2="11.6027" gradientUnits="userSpaceOnUse">
<stop stop-color="#D7D1FD"/>
<stop offset="1" stop-color="#6C639F"/>
</linearGradient>
<linearGradient id="paint2_linear" x1="12.9165" y1="4.40234" x2="16.046" y2="16.4359" gradientUnits="userSpaceOnUse">
<stop stop-color="#D7D1FD"/>
<stop offset="1" stop-color="#6C639F"/>
</linearGradient>
<linearGradient id="paint3_linear" x1="3.15268" y1="9.70703" x2="15.8391" y2="25.8997" gradientUnits="userSpaceOnUse">
<stop stop-color="#D7D1FD"/>
<stop offset="1" stop-color="#6C639F"/>
</linearGradient>
</defs>
</svg>

<svg xmlns="http://www.w3.org/2000/svg" width="28" height="32" fill="none" xmlns:v="https://vecta.io/nano"><path d="M16.567 16.253l-1.428.83V32L28 24.545V9.627l-11.434 6.626z" fill="url(#A)"/><path d="M18.894 2.875L13.948 0 .729 7.661l4.953 2.875 13.212-7.661z" fill="url(#B)"/><path d="M27.16 7.662l-5.7-3.26-13.212 7.661.754.392 4.946 2.868 4.92-2.848 8.293-4.813z" fill="url(#C)"/><path d="M7.248 17.548L4.88 16.326v-3.797L0 9.707v14.812l12.769 7.403V17.11l-5.522-3.193v3.631z" fill="url(#D)"/><defs><linearGradient id="A" x1="18.314" y1="9.627" x2="31.091" y2="25.937" gradientUnits="userSpaceOnUse"><stop stop-color="#d7d1fd"/><stop offset="1" stop-color="#6c639f"/></linearGradient><linearGradient id="B" x1="5.213" y1="0" x2="8.244" y2="11.603" gradientUnits="userSpaceOnUse"><stop stop-color="#d7d1fd"/><stop offset="1" stop-color="#6c639f"/></linearGradient><linearGradient id="C" x1="12.917" y1="4.402" x2="16.046" y2="16.436" gradientUnits="userSpaceOnUse"><stop stop-color="#d7d1fd"/><stop offset="1" stop-color="#6c639f"/></linearGradient><linearGradient id="D" x1="3.153" y1="9.707" x2="15.839" y2="25.9" gradientUnits="userSpaceOnUse"><stop stop-color="#d7d1fd"/><stop offset="1" stop-color="#6c639f"/></linearGradient></defs></svg>
